X: 18
T: POLKAS: Ballinafad Set
T: Ballinafad
C: C: Trad. / Niel Gow / Trad.; S: Various
C: Set Leaders: Mars, Anton
Z: [Unedited]; gian marco / ceolachan at The Session
N: https://thesession.org/members/26966/sets/94260
R: Polka
M: 2/4
L: 1/8
Q: 1/4=140
K: Gmaj
B/c/B/A/ B/c/B/A/|BG G>B|AG FG|AB cd|
B/c/B/A/ B/c/B/A/|BG GA/B/|AG FE|D2 DB/c/|
d>e dB|cA A>c|BG EF|GF ED|
B/c/B/A/ B/c/B/A/|BG G>B|AG FA|G2 Gg/a/||
|:b2 b/a/g/f/|g2gd|f2 f/e/d/B/|c2cd/c/|
BG gd|cA B/c/d|1 e2 f2|g2 d/e/g/a/:|2 ec fa|g2 d>c||
T: Farewell to Whiskey
K: Gmaj
|:DG B/A/G/A/|BE E/F/G/E/|DG B/A/G/B/|dB Bd|
e/f/g/e/ dB|c/B/A/G/ AB|DG B/A/G/A/|1 BG G>E:|2 BG G>B||
|:dB gd|e/f/g/e/ dB/c/|dB gd|ef g2|
e/f/g/e/ dB|c/B/A/G/ AB|DG B/A/G/A/|1 BG G>B:|2 BG G>E||
T: Dark Girl Dressed in Blue
K: Dmaj
|:FA Ad|Bd A>F|GB AF/A/|BE G/F/E/D/|
FA Ad|B/c/d/B/ A/B/A/F/|GB A/B/A/G/|FD D>E:||
|:FA A/B/d/e/|f/e/f/d/ ed|Bd/B/ A/D/F/A/|BE G/F/E/D/|
FA A/B/d/e/|f/e/f/d/ ed|Bd/B/ A/B/A/G/|FD D>E:||

